Numix/16/status/indicator-keyboard-Fr-7.svg

<?xml version="1.0" encoding="UTF-8" standalone="no"?>
<svg
   xmlns:dc="http://purl.org/dc/elements/1.1/"
   xmlns:cc="http://creativecommons.org/ns#"
   xmlns:rdf="http://www.w3.org/1999/02/22-rdf-syntax-ns#"
   xmlns:svg="http://www.w3.org/2000/svg"
   xmlns="http://www.w3.org/2000/svg"
   xmlns:sodipodi="http://sodipodi.sourceforge.net/DTD/sodipodi-0.dtd"
   xmlns:inkscape="http://www.inkscape.org/namespaces/inkscape"
   viewBox="0 0 16 16"
   id="svg2"
   version="1.1"
   inkscape:version="0.91 r13725"
   sodipodi:docname="indicator-keyboard-Fr-7.svg">
  <metadata
     id="metadata14">
    <rdf:RDF>
      <cc:Work
         rdf:about="">
        <dc:format>image/svg+xml</dc:format>
        <dc:type
           rdf:resource="http://purl.org/dc/dcmitype/StillImage" />
      </cc:Work>
    </rdf:RDF>
  </metadata>
  <defs
     id="defs12" />
  <sodipodi:namedview
     pagecolor="#ffffff"
     bordercolor="#666666"
     borderopacity="1"
     objecttolerance="10"
     gridtolerance="10"
     guidetolerance="10"
     inkscape:pageopacity="0"
     inkscape:pageshadow="2"
     inkscape:window-width="459"
     inkscape:window-height="369"
     id="namedview10"
     showgrid="false"
     inkscape:zoom="14.75"
     inkscape:cx="8"
     inkscape:cy="8"
     inkscape:window-x="65"
     inkscape:window-y="24"
     inkscape:window-maximized="0"
     inkscape:current-layer="svg2" />
  <path
     style="fill:#ececec;fill-opacity:1"
     d="M 1.5996094 0 C 0.71320937 2.9605947e-16 0 0.71320937 0 1.5996094 L 0 14.400391 C 2.9605947e-16 15.286791 0.71320937 16 1.5996094 16 L 14.400391 16 C 15.286791 16 16 15.286791 16 14.400391 L 16 1.5996094 C 16 0.71320937 15.286791 0 14.400391 0 L 1.5996094 0 z M 3.0351562 4.859375 L 6.5898438 4.859375 L 6.5898438 5.390625 L 3.6464844 5.390625 L 3.6464844 7.5859375 L 6.2558594 7.5859375 L 6.2558594 8.1171875 L 3.6464844 8.1171875 L 3.6464844 11.095703 L 3.0351562 11.095703 L 3.0351562 4.859375 z M 9.0996094 6.3535156 C 9.2916094 6.3535156 9.472625 6.3684375 9.640625 6.3984375 C 9.814625 6.4284375 9.934 6.4582812 10 6.4882812 L 9.8828125 6.9921875 C 9.8348125 6.9681875 9.7359375 6.9439219 9.5859375 6.9199219 C 9.4419375 6.8899219 9.2497656 6.875 9.0097656 6.875 C 8.7577656 6.875 8.5544375 6.8936875 8.3984375 6.9296875 C 8.2484375 6.9656875 8.1495625 6.9955312 8.1015625 7.0195312 L 8.1015625 11.095703 L 7.515625 11.095703 L 7.515625 6.6582031 C 7.665625 6.5922031 7.8727187 6.5269375 8.1367188 6.4609375 C 8.4007187 6.3889375 8.7216094 6.3535156 9.0996094 6.3535156 z M 10.501953 8.8417969 L 12.964844 8.8417969 L 12.964844 9.1816406 C 12.832244 9.3415406 12.687244 9.5551188 12.527344 9.8242188 C 12.371344 10.089419 12.222431 10.391163 12.082031 10.726562 C 11.941631 11.058062 11.818191 11.410756 11.712891 11.785156 C 11.611491 12.159556 11.550744 12.529884 11.527344 12.896484 L 11.123047 12.896484 C 11.146447 12.572784 11.205228 12.229888 11.298828 11.867188 C 11.396328 11.504488 11.513891 11.1518 11.650391 10.8125 C 11.790791 10.4732 11.939709 10.161653 12.099609 9.8769531 C 12.263409 9.5922532 12.422119 9.3649594 12.574219 9.1933594 L 10.501953 9.1933594 L 10.501953 8.8417969 z "
     id="path4" />
</svg>

<svg xmlns="http://www.w3.org/2000/svg" viewBox="0 0 16 16">
 <path d="m 1.6 0 c -0.886 0 -1.6 0.713 -1.6 1.6 l 0 12.801 c 0 0.886 0.713 1.6 1.6 1.6 l 12.801 0 c 0.886 0 1.6 -0.713 1.6 -1.6 l 0 -12.801 c 0 -0.886 -0.713 -1.6 -1.6 -1.6 l -12.801 0 z m 1.436 4.859 l 3.555 0 l 0 0.531 l -2.943 0 l 0 2.195 l 2.609 0 l 0 0.531 l -2.609 0 l 0 2.979 l -0.611 0 l 0 -6.236 z m 6.06 1.494 c 0.192 0 0.373 0.015 0.541 0.045 c 0.174 0.03 0.293 0.06 0.359 0.09 l -0.117 0.504 c -0.048 -0.024 -0.147 -0.048 -0.297 -0.072 c -0.144 -0.03 -0.336 -0.045 -0.576 -0.045 c -0.252 0 -0.455 0.019 -0.611 0.055 c -0.15 0.036 -0.249 0.066 -0.297 0.09 l 0 4.076 l -0.586 0 l 0 -4.437 c 0.15 -0.066 0.357 -0.131 0.621 -0.197 c 0.264 -0.072 0.585 -0.107 0.963 -0.107 z m 1.402 2.488 l 2.463 0 l 0 0.34 c -0.133 0.16 -0.278 0.373 -0.438 0.643 c -0.156 0.265 -0.305 0.567 -0.445 0.902 c -0.14 0.332 -0.264 0.684 -0.369 1.059 c -0.101 0.374 -0.162 0.745 -0.186 1.111 l -0.404 0 c 0.023 -0.324 0.082 -0.667 0.176 -1.029 c 0.098 -0.363 0.215 -0.715 0.352 -1.055 c 0.14 -0.339 0.289 -0.651 0.449 -0.936 c 0.164 -0.285 0.323 -0.512 0.475 -0.684 l -2.072 0 l 0 -0.352 z" style="fill:#ececec;fill-opacity:1"/>
</svg>
